src/icons/search-applications.svg

<svg enable-background="new 0 0 38 38" viewBox="0 0 38 38" xmlns="http://www.w3.org/2000/svg"><g transform="translate(1 1)"><circle cx="18" cy="18" fill="#f7fcff" r="18" stroke="#d4ecfc"/><path d="m9 10v16.5h18v-16.5zm1.5 1.5h15v1.5h-15zm0 3h15v10.5h-15zm7.5 1.5-1.5 7.5h1.5l1.5-7.5zm-3.6.3-2.2 3-.3.5.3.5 2.2 3 1.2-.9-1.9-2.5 1.9-2.5zm7.2 0-1.2.9 1.9 2.5-1.9 2.5 1.2.9 2.2-3 .3-.5-.3-.5z" fill="#25a6f7"/></g></svg>

<?xml version="1.0" encoding="utf-8"?>
<!-- Generator: Adobe Illustrator 20.1.0, SVG Export Plug-In . SVG Version: 6.00 Build 0)  -->
<svg version="1.1" id="Layer_1" xmlns="http://www.w3.org/2000/svg" xmlns:xlink="http://www.w3.org/1999/xlink" x="0px" y="0px"
	 viewBox="0 0 38 38" style="enable-background:new 0 0 38 38;" xml:space="preserve">
<style type="text/css">
	.st0{fill:#F7FCFF;stroke:#D4ECFC;}
	.st1{fill:#25A6F7;}
</style>
<title>HDL/Icon/Standard/Search/applications</title>
<desc>Created with Sketch.</desc>
<g id="Colors">
	<g id="Search-Icons" transform="translate(-100.000000, -194.000000)">
		<g id="HDL_x2F_Icon_x2F_Standard_x2F_Search_x2F_applications" transform="translate(101.000000, 195.000000)">
			<g id="Applications">
				<circle id="Oval" class="st0" cx="18" cy="18" r="18"/>
				<path id="Shape" class="st1" d="M9,10v16.5h18V10H9z M10.5,11.5h15V13h-15V11.5z M10.5,14.5h15V25h-15V14.5z M18,16l-1.5,7.5H18
					l1.5-7.5H18z M14.4,16.3l-2.2,3l-0.3,0.5l0.3,0.5l2.2,3l1.2-0.9l-1.9-2.5l1.9-2.5L14.4,16.3z M21.6,16.3l-1.2,0.9l1.9,2.5
					l-1.9,2.5l1.2,0.9l2.2-3l0.3-0.5l-0.3-0.5L21.6,16.3z"/>
			</g>
		</g>
	</g>
</g>
</svg>
